X: 20483
T: John Kelly's
R: reel
M: 4/4
K: Edorian
Beed BcdA|B2 AG E2 FA|Beed BcdA|B2 AF D2 FA:|
Beec df ~f2|edBc (3dcB cA|Beec df ~f2|edBc d3A|
Beec df ~f2|edBc dA (3Bcd|g3e fgfe|dB ~B2 dfec||

